fonts/lozegw/uni0041.svg

<svg width="500" height="850" xmlns="http://www.w3.org/2000/svg">
    <path
        d="m -250,0 -25,25 -75,75 -25,25 -75,75 -25,25 25,25 25,-25 75,-75 75,75 25,25 25,-25 -12.5,-12.5 -87.5,-87.5 75,-75 175,175 25,25 25,-25 z" />
</svg>

<svg width="500" height="850" xmlns="http://www.w3.org/2000/svg">
    <path
        d="M -250 0 L -275 25 L -350 100 L -375 125 L -450 200 L -475 225 L -450 250 L -425 225 L -350 150 L -275 225 L -250 250 L -225 225 L -237.5 212.5 L -325 125 L -250 50 L -75 225 L -50 250 L -25 225 L -250 0 z " />
</svg>
